shared/src/commonMain/moko-resources/images/bookshelf-tab.svg

<?xml version="1.0" encoding="UTF-8" standalone="no"?>
<!DOCTYPE svg PUBLIC "-//W3C//DTD SVG 1.1//EN" "http://www.w3.org/Graphics/SVG/1.1/DTD/svg11.dtd">
<svg width="100%" height="100%" viewBox="0 0 512 512" version="1.1" xmlns="http://www.w3.org/2000/svg" xmlns:xlink="http://www.w3.org/1999/xlink" xml:space="preserve" xmlns:serif="http://www.serif.com/" style="fill-rule:evenodd;clip-rule:evenodd;">
    <circle id="svg_12" cx="256" cy="256" r="194.3" style="fill:rgb(142,34,34);fill-opacity:0;stroke:rgb(27,0,0);stroke-width:7.5px;"/>
    <path id="svg_14" d="M177.889,148.566C199.701,132.917 226.432,123.7 255.3,123.7C284.1,123.7 310.775,132.874 332.558,148.456C291.292,159.215 274.38,173.26 272.9,174C266.2,176.5 262.4,190 262.7,189.7C262.443,189.957 261.006,345.665 260.794,389.588C258.972,389.663 257.14,389.7 255.3,389.7C253.494,389.7 251.697,389.664 249.908,389.592C249.704,346.459 248.26,190.126 248,189.701C248.296,190.087 244.497,176.599 237.8,174.1C236.317,173.358 219.339,159.303 177.889,148.566Z" style="fill:rgb(11,0,0);stroke:rgb(15,0,0);stroke-width:1.5px;"/>
    <path id="svg_3" d="M87.2,341C87.2,341 84.7,162.3 84.3,162C84.6,135.3 93.1,138 99.6,137.2C199.3,142.6 235.6,173 237.8,174.1C244.5,176.6 248.3,190.1 248,189.7C248.3,190 250.2,400.8 249.9,400.5C251.5,411.8 243.2,411 242.9,410.7C180.2,361.4 93.5,349 93.2,348.7C87.2,348.2 87.2,341 87.2,341Z" style="fill:rgb(238,238,238);fill-opacity:0;fill-rule:nonzero;stroke:black;stroke-width:10px;"/>
    <path id="svg_4" d="M423.5,341.4C423.5,341.4 426,162.3 426.4,161.9C426.1,135.2 417.6,137.8 411.1,137C311.4,142.4 275.1,172.9 272.9,174C266.2,176.5 262.4,190 262.7,189.7C262.4,190 260.5,401.3 260.8,401C259.2,412.3 267.5,411.6 267.8,411.2C330.5,361.8 417.2,349.4 417.5,349C423.5,348.7 423.5,341.4 423.5,341.4Z" style="fill:rgb(238,238,238);fill-opacity:0;fill-rule:nonzero;stroke:black;stroke-width:10px;"/>
</svg>

<?xml version="1.0" encoding="UTF-8" standalone="no"?><!DOCTYPE svg PUBLIC "-//W3C//DTD SVG 1.1//EN" "http://www.w3.org/Graphics/SVG/1.1/DTD/svg11.dtd"><svg width="100%" height="100%" viewBox="0 0 512 512" version="1.1" xmlns="http://www.w3.org/2000/svg" xmlns:xlink="http://www.w3.org/1999/xlink" xml:space="preserve" xmlns:serif="http://www.serif.com/" style="fill-rule:evenodd;clip-rule:evenodd;"><circle id="svg_11" cx="256" cy="256" r="220.9" style="fill:#443c3c;fill-opacity:0;stroke:#000;stroke-width:20px;"/><circle id="svg_13" cx="256" cy="256" r="189.7" style="fill:#eee;fill-opacity:0;stroke:#000;stroke-width:20px;"/><circle id="svg_14" cx="255.3" cy="256.7" r="133" style="fill-opacity:0;stroke:#000;stroke-width:20px;"/><path id="svg_3" d="M87.2,341c0,0 -2.5,-178.7 -2.9,-179c0.3,-26.7 8.8,-24 15.3,-24.8c99.7,5.4 136,35.8 138.2,36.9c6.7,2.5 10.5,16 10.2,15.6c0.3,0.3 2.2,211.1 1.9,210.8c1.6,11.3 -6.7,10.5 -7,10.2c-62.7,-49.3 -149.4,-61.7 -149.7,-62c-6,-0.5 -6,-7.7 -6,-7.7Z" style="fill-rule:nonzero;stroke:#000;stroke-width:10px;"/><path id="svg_4" d="M423.5,341.4c0,0 2.5,-179.1 2.9,-179.5c-0.3,-26.7 -8.8,-24.1 -15.3,-24.9c-99.7,5.4 -136,35.9 -138.2,37c-6.7,2.5 -10.5,16 -10.2,15.7c-0.3,0.3 -2.2,211.6 -1.9,211.3c-1.6,11.3 6.7,10.6 7,10.2c62.7,-49.4 149.4,-61.8 149.7,-62.2c6,-0.3 6,-7.6 6,-7.6Z" style="fill-rule:nonzero;stroke:#000;stroke-width:10px;"/><path id="svg_5" d="M85.9,369.7c0,0 -2.6,-178.7 -2.9,-179c0.3,-26.7 8.9,-24 15.5,-24.8c101.3,5.4 138.2,35.8 140.4,36.9c6.8,2.5 10.7,16 10.4,15.6c0.3,0.3 2.3,211.1 1.9,210.8c1.6,11.3 -6.8,10.5 -7.1,10.2c-63.8,-49.3 -151.8,-61.7 -152.1,-62c-6.1,-0.4 -6.1,-7.7 -6.1,-7.7Z" style="fill-rule:nonzero;stroke:#000;stroke-width:5px;"/><path id="svg_6" d="M424.8,370c0,0 2.6,-179.1 2.9,-179.5c-0.3,-26.7 -8.9,-24.1 -15.5,-24.9c-101.3,5.4 -138.2,35.9 -140.5,37c-6.8,2.5 -10.7,16 -10.4,15.7c-0.3,0.3 -2.3,211.6 -1.9,211.3c-1.6,11.3 6.8,10.6 7.1,10.2c63.8,-49.4 151.8,-61.8 152.1,-62.2c6.2,-0.3 6.2,-7.6 6.2,-7.6Z" style="fill-rule:nonzero;stroke:#000;stroke-width:5px;"/></svg>
